X:1
T:Title
%%score { ( 1 4 ) | ( 2 3 ) }
L:1/8
Q:1/4=100
M:4/4
K:Ab
V:1 treble nm="Grand Piano"
V:4 treble 
V:2 bass 
V:3 bass 
V:1
 [Ec]3 [DB] [CA]2 [CE]2 | [DF]2 [CE]>[DF] [CE]2 [A,C]2 | [Ec]3 [DB] [CA]2 [CE]2 | F2 G2 [CA]4 | %4
w: Thomas~Hastings * * *||||
 G3 A B2 G2 | A2 B2 c2 B2 | [Ge]3 [Ac] [GB]3 [B,EG] | [CFA]2 .[B,=DF]2 [G,E]4 | %8
w: ||||
 [Ec]2 [Ec]2 [EB]3 [EB] | [Ec]2 ec B4 | c3 c [Fd]3 [Fd] | [Ec]2 [DB]2 [CA]4 |] %12
w: ||||
V:2
 [A,,A,]3 [A,,E,] [A,,E,]2 [A,,A,]2 | [A,,A,]2 [A,,A,]2 [A,,A,]2 [A,,E,]2 | %2
 [A,,A,]3 [A,,E,] [A,,E,]2 [A,,A,]2 | [D,A,D]2 [E,D]2 [A,,E,]4 | [E,B,E]3 [E,CE] [E,DE]2 [E,B,E]2 | %5
 [E,CE]2 [E,DE]2 [E,E]2 [E,DE]2 | [E,B,]3 [E,E] [E,E]3 E, | A,,2 z A, E,4 | %8
 [A,,A,]2 [C,A,]2 [E,G,]3 [E,G,] | [A,,A,]2 A,-[A,,A,] [E,G,E]4 | %10
 [A,E]3 [A,_G][K:bass] [D,A,]3 [D,A,] | [E,A,]2 [E,G,]2 [A,,A,]4 |] %12
V:3
 x8 | x8 | x8 | x8 | x8 | x8 | x8 | z2 B,,2 z4 | x8 | z2 .C,2 z4 | x4[K:bass] x4 | x8 |] %12
V:4
 x8 | x8 | x8 | x8 | x8 | x8 | x8 | x8 | x8 | z2 E2 z4 | x8 | x8 |] %12

